X:1
T:Oh, My Lord Jesus
T:Oh, My Lord Jesus
T:Friedrich Ferdinand Flemming, 1811
T:Christian Gregor, & Richard W. Adams 2017
T:Public Domain Courtesy of the Cyber Hymnal™
C:Friedrich Ferdinand Flemming, 1811
Z:Public Domain
Z:Courtesy of the Cyber Hymnal™
%%score ( 1 2 ) ( 3 4 )
L:1/8
Q:1/4=113
M:4/4
K:Ab
V:1 treble 
V:2 treble 
V:3 bass 
V:4 bass 
V:1
 [EA]4 [EA]2 [EA]2 | [EB]4 [EB]4 | [Ec]2 [=EA]2 [FA]2 [FB]2 | [EA]4 [EG]4 | [Ec]4 [Ec]2 [Ec]2 | %5
w: 1.~Oh, my Lord|Je- sus,|if I did not|have You,|Or if Your|
w: 2.~Where would my|tears and|sor- row find re-|li- ef?|What o- ther|
w: 3.~Had You not|loved me|first, be- fore cre-|a- tion,|My stub- born|
w: 4.~Now, from the|bot- tom|of my soul I|thank You,|For the e-|
 (c3 B) [_EB]4 | [FA]3 [FA] [FB]2 [FA]2 | ([FA]4 [=EG]4) | [Ec]4 [EA]2 [EA]2 | (d3 c [EB]4) | %10
w: blood * did|not for sin- ners|speak, *|Where would my|soul, * *|
w: heart * like|Yours so full of|love? *|You are my|confidence, * *|
w: heart * would|not have sought Your|grace; *|You searched me|out,~and * *|
w: ter- * nal|plan to give me|rest, *|Fel- low- ship,|life~for- * *|
 [Ec]3 [Ec] [=DB]2 [DA]2 | ([EG]2 [=DF]2 E4) | [Ec]4 [FA]2 [FB]2 | A4 G4 | [EA]8 |] %15
w: least, and last, and|lost, * *|Peace and for-|give- ness|seek?|
w: You and You a-|lone, * *|None o- ther|reigns a-|bove.|
w: in Your mer- cy|took~me * *|In- to Your|fond em-|brace.|
w: ev- er through the|cross; * *|Your child is|tr- uly|blessed.|
V:2
 x8 | x8 | x8 | x8 | x8 | =E4 x4 | x8 | x8 | x8 | E4 x4 | x8 | x4 E4 | x8 | E8 | x8 |] %15
V:3
 [A,C]4 [A,C]2 [A,C]2 | [G,D]4 [G,D]4 | [A,C]2 [A,C]2 [D,D]2 [D,D]2 | [E,C]4 [E,B,]4 | %4
 A,4 A,2 A,2 | (B,3 C) [G,C]4 | [F,C]3 [F,C] [F,D]2 [F,C]2 | [C,C]8 | [A,,C]4 [A,C]2 [A,C]2 | %9
 ([G,B,]4 [G,B,]4) | A,3 A, [F,B,]2 [F,B,]2 | ([E,B,]2 [B,,A,]2 [E,G,]4) | %12
 [A,,A,]4 [D,A,]2 [B,,D]2 | C4 B,4 | [A,,C]8 |] %15
V:4
 x8 | x8 | x8 | x8 | A,4 A,2 A,2 | G,4 x4 | x8 | x8 | x8 | x8 | A,3 A, x4 | x8 | x8 | E,8 | x8 |] %15

